!!!COM: Palestrina, Giovanni Perluigi da
!!!OPR: Gabriel Archangelus
!!!OTL: Sanctus
**kern	**kern	**kern	**kern
*Ibass	*Itenor	*Icalto	*Icant
!Bassus	!Tenor	!Altus	!Cantus
*clefF4	*clefGv2	*clefG2	*clefG2
*k[b-]	*k[b-]	*k[b-]	*k[b-]
*D:aeo	*D:aeo	*D:aeo	*D:aeo
*M4/2	*M4/2	*M4/2	*M4/2
=1	=1	=1	=1
0r	0r	0g	0r
=2	=2	=2	=2
0r	0r	1d	1r
.	.	[1g	[1dd
=3	=3	=3	=3
0r	0r	2g]	1dd]
.	.	2f	.
.	.	2.b-	1g
.	.	4a	.
=4	=4	=4	=4
0r	0r	2g	1.dd
.	.	2f	.
.	.	1e	.
.	.	.	2cc#
=5	=5	=5	=5
0G	0r	2d	2.dd
.	.	2.b-	.
.	.	.	4cc
.	.	.	1b-
.	.	4a	.
.	.	[2g	.
=6	=6	=6	=6
1D	1r	2g]	2a
.	.	2f#	2.dd
[1G	[1d	1g	.
.	.	.	4cc
.	.	.	[2b-
=7	=7	=7	=7
2G]	1d]	1r	2b-]
2F	.	.	2a
2.B-	1G	[1d	2.dd
4A	.	.	4cc
=8	=8	=8	=8
2G	1.d	1d]	2b-
2F	.	.	2a
1E	.	2G	2.g
.	2c#	[2g	.
.	.	.	4a
=9	=9	=9	=9
1D	2.d	2g]	2b-
.	.	2f	1a
.	4c	.	.
2r	1B-	1d	.
[2d	.	.	2g
=10	=10	=10	=10
2d]	2A	1e	1a
2c	1a	.	.
1B-	.	1d	2r
.	2g	.	[2dd
=11	=11	=11	=11
1A	2f	2r	2dd]
.	2e	1a	2cc
1r	1d	.	2.ff
.	.	2f	.
.	.	.	4ee
=12	=12	=12	=12
1r	0G	2.b-	2dd
.	.	.	2cc
.	.	4a	.
2r	.	2g	1b-
[2d	.	2f	.
=13	=13	=13	=13
2d]	1A	1e	0a
2c	.	.	.
2f	1r	2.d	.
2e	.	.	.
.	.	4e	.
=14	=14	=14	=14
2d	1r	2f	2r
2c	.	2e	1a
1B-	1d	2f	.
.	.	2d	2g
=15	=15	=15	=15
2A	2c	2e	2.cc
4F	1f	2A	.
4G	.	.	4b-
4A	.	1r	2a
4B-	.	.	.
2c	[2e	.	2g
=16	=16	=16	=16
1d	4e]	1r	1f
.	4d	.	.
.	1d	.	.
1A	.	2r	1e
.	2c	[2a	.
=17	=17	=17	=17
0r	1B-	2a]	2d
.	.	2g	1dd
.	1A	2f	.
.	.	2e	2cc
=18	=18	=18	=18
2r	2.a	1.d	1.ff
1d	.	.	.
.	4g	.	.
.	2f	.	.
2c	[2g	2e	2ee
=19	=19	=19	=19
2B-	4g]	1f	2dd
.	4f	.	.
2A	1f	.	2cc
1G	.	1g	1b-
.	2e	.	.
=20	=20	=20	=20
1F	0f	2c	1a
.	.	1d	.
2r	.	.	2r
[2F	.	4c	[2cc
.	.	4B-	.
=21	=21	=21	=21
2F]	0f	0A	2cc]
2F	.	.	2cc
1F	.	.	1cc
=22	=22	=22	=22
1B-	0f	1r	1dd
2A	.	2r	2cc
[2d	.	[2f	[2ff
=23	=23	=23	=23
2d]	0r	2f]	4ff]
.	.	.	4ee
2.B-	.	2f	2.dd
.	.	1f	.
4c	.	.	4cc
2d	.	.	2a
=24	=24	=24	=24
1G	0r	1g	2b-
.	.	.	2b-
1d	.	2f	2a
.	.	[2b-	[2dd
=25	=25	=25	=25
2.G	0r	4b-]	4dd]
.	.	4a	4cc
.	.	2.g	2.b-
4A	.	.	.
1B-	.	.	.
.	.	4f	4a
.	.	2d	4f
.	.	.	4g
=26	=26	=26	=26
2.A	1.c	2e	1a
.	.	1f	.
4B-	.	.	.
1c	.	.	[1g
.	2c	4e	.
.	.	4d	.
=27	=27	=27	=27
0r	1c	2e	2g]
.	.	2e	2g
.	1d	[1f	2f
.	.	.	[2ff
=28	=28	=28	=28
1.F	2c	1f]	4ff]
.	.	.	4ee
.	2.f	.	2dd
.	.	1r	2cc
.	4e	.	.
2F	[2d	.	2dd
=29	=29	=29	=29
1F	4d]	1f	1a
.	4c	.	.
.	2A	.	.
1G	2B-	2d	1r
.	2B-	2e	.
=30	=30	=30	=30
2F	2A	1f	0r
2.B-	2.d	.	.
.	.	2B-	.
4A	4c	.	.
[2G	[2e-	[2b-	.
=31	=31	=31	=31
4G]	4e-]	2b-]	0r
4F	4d	.	.
2D	1d	2a	.
2E-	.	1g	.
2E-	2c	.	.
=32	=32	=32	=32
[0D	[0d	2r	1.a
.	.	1f	.
.	.	2f	2a
=33	=33	=33	=33
1D]	1d]	1f	1a
1r	1r	1g	1b-
=34	=34	=34	=34
1.A	1.c	2e	2a
.	.	2.a	2.cc
.	.	4g	4b-
2A	2c	2f	4a
.	.	.	4g
=35	=35	=35	=35
1A	1c	2e	1a
.	.	1f	.
1B-	1d	.	2f
.	.	4e	2g
.	.	4d	.
=36	=36	=36	=36
2A	2c	2e	1a
2.d	2.f	2d	.
.	.	2f	1r
4c	4e	.	.
[2B-	[2d	[2g	.
=37	=37	=37	=37
4B-]	4d]	4g]	0r
4A	4c	4f	.
2F	2A	1f	.
2G	2B-	.	.
2G	2B-	2e	.
=38	=38	=38	=38
[0F	2A	0f	1.cc
.	1A	.	.
.	2A	.	2cc
=39	=39	=39	=39
1F]	1A	0f	1cc
1r	1B-	.	1dd
=40	=40	=40	=40
1F	1A	0f	2cc
.	.	.	2.ff
2.D	[1d	.	.
.	.	.	4ee
.	.	.	[2dd
4E	.	.	.
=41	=41	=41	=41
1F	2d]	2r	4dd]
.	.	.	4cc
.	2c	2f	2a
1G	1B-	2.d	2b-
.	.	.	2b-
.	.	4e	.
=42	=42	=42	=42
[0F	[0c	[0f	[0a
=43	=43	=43	=43
0F]	0c]	0f]	0a]
*	*	*	*-
!! Pleni
*Itenor	*Icalto	*Icant
!Tenor	!Altus	!Cantus
*clefGv2	*clefG2	*clefG2
*k[b-]	*k[b-]	*k[b-]
*D:aeo	*D:aeo	*D:aeo
*M4/2	*M4/2	*M4/2
=44	=44	=44
0r	0r	1dd
.	.	2cc
.	.	2cc
=45	=45	=45
1d	0r	2.ff
.	.	4dd
2c	.	2ee
2c	.	[2a
=46	=46	=46
2.f	0r	2a]
.	.	2.dd
4d	.	.
2e	.	.
.	.	4cc
[2A	.	2cc
=47	=47	=47
2A]	0r	2a
1d	.	2.b-
.	.	4a
2c	.	2a
=48	=48	=48
2B-	1r	2g
2A	.	2f
4G	1g	1b-
4A	.	.
4B-	.	.
4c	.	.
=49	=49	=49
1d	2f	1a
.	2f	.
1G	2.b-	2r
.	.	2dd
.	4g	.
=50	=50	=50
0r	2a	2cc
.	1d	2.ff
.	.	4ee
.	[2g	4dd
.	.	4cc
=51	=51	=51
1d	4g]	4b-
.	4f	4a
.	1f	4a
.	.	8g
.	.	8f
2c	.	2g
2c	2e	[2cc
=52	=52	=52
2.f	1d	2cc]
.	.	2b
4d	.	.
2e	2A	1cc
[2A	[2a	.
=53	=53	=53
2A]	4a]	0r
.	4g	.
1d	4f	.
.	4e	.
.	2d	.
2c	2e	.
=54	=54	=54
1B-	2f	1dd
.	2g	.
1A	[1a	2cc
.	.	2cc
=55	=55	=55
2r	1a]	2.ff
2d	.	.
.	.	4dd
2c	1r	2ee
2c	.	[2a
=56	=56	=56
2.f	1r	2a]
.	.	1dd
4d	.	.
1e	1g	.
.	.	2cc
=57	=57	=57
1d	2f	2b-
.	2f	2.a
1G	2.b-	.
.	.	4g
.	.	[2g
.	4g	.
=58	=58	=58
2.d	2a	2g]
.	1d	2f
4c	.	.
2B-	.	1b-
2G	[2g	.
=59	=59	=59
1d	2g]	2.a
.	2f	.
.	.	4b-
2c	2e	2cc
2B-	2d	[2dd
=60	=60	=60
1A	1e	2dd]
.	.	2cc#
2r	1d	2.dd
[2d	.	.
.	.	4cc
=61	=61	=61
2d]	2r	2b-
2c	1g	2cc
2.d	.	1a
.	2f#	.
4c	.	.
=62	=62	=62
2B-	2g	0r
2A	2a	.
2G	2b-	.
2F	[2a	.
=63	=63	=63
1B-	4a]	2r
.	8g	.
.	8f	.
.	2g	1dd
1A	1a	.
.	.	2cc#
=64	=64	=64
2.B-	2r	2.dd
.	1g	.
4c	.	4cc
1d	.	2b-
.	2f	2a
=65	=65	=65
0r	2b-	2g
.	2.a	2f
.	.	1b-
.	4g	.
.	[2g	.
=66	=66	=66
2r	2g]	[0a
1d	4f	.
.	4e	.
.	2f	.
2c#	2e	.
=67	=67	=67
2.d	2r	1a]
.	2a	.
4c	.	.
2B-	2g	2r
2A	[2a	[2cc
=68	=68	=68
1d	2a]	2cc]
.	4g	2b
.	4f	.
2c	2e	2.cc
2F	[2f	.
.	.	4b-
=69	=69	=69
1c	2f]	2a
.	2e	2g
1r	2a	2f
.	[2g	2e
=70	=70	=70
1r	4g]	1a
.	4f	.
.	1f	.
[1c	.	[1g
.	4e	.
.	4d	.
=71	=71	=71
2c]	4e	1g]
.	4c	.
2B	2d	.
2.c	1e	2r
.	.	[2cc
4B-	.	.
=72	=72	=72
2A	1r	2cc]
2G	.	2b
2A	2r	2.cc
2F	[2f	.
.	.	4b-
=73	=73	=73
1c	2f]	2a
.	2e	2g
1F	2.f	2a
.	.	[2ff
.	4e	.
=74	=74	=74
0r	2d	2ff]
.	2c	2ee
.	2B-	2dd
.	2A	4cc
.	.	4b-
=75	=75	=75
2r	1d	2a
1f	.	2f
.	1c	1g
2e	.	.
=76	=76	=76
2.f	1r	0a
4e	.	.
2d	2r	.
2c	[2a	.
=77	=77	=77
1B-	2a]	2r
.	2g	1dd
1A	2.a	.
.	.	2cc#
.	4g	.
=78	=78	=78
2B-	2f	2dd
2c	2e	2ee
2d	2d	2ff
2A	2c	[2ee
=79	=79	=79
1d	1f	4ee]
.	.	4dd
.	.	1dd
1A	1e	.
.	.	2cc#
=80	=80	=80
[0d	[0d	[0dd
=81	=81	=81
0d]	0d]	0dd]
*-	*-	*-
!! Hosanna
**kern	**kern	**kern	**kern
*Ibass	*Itenor	*Icalto	*Icant
!Bassus	!Tenor	!Altus	!Cantus
*clefF4	*clefGv2	*clefG2	*clefG2
*k[b-]	*k[b-]	*k[b-]	*k[b-]
*D:aeo	*D:aeo	*D:aeo	*D:aeo
*M4/2	*M4/2	*M4/2	*M4/2
=82	=82	=82	=82
0r	0r	2.d	[0dd
.	.	4e	.
.	.	2f	.
.	.	[2g	.
=83	=83	=83	=83
0r	1r	2g]	1dd]
.	.	2f	.
.	2.G	[1b-	1dd
.	4A	.	.
=84	=84	=84	=84
0r	2B-	2b-]	1g
.	1c	2g	.
.	.	2a	[1dd
.	2B-	2b-	.
=85	=85	=85	=85
0r	2e-	2.g	2dd]
.	2e-	.	2cc
.	.	4a	.
.	1d	2b-	2.dd
.	.	[2a	.
.	.	.	4cc
=86	=86	=86	=86
[0d	1G	4a]	4b-
.	.	4g	4a
.	.	1g	1b-
.	1r	.	.
.	.	2f	[2a
=87	=87	=87	=87
1d]	1r	1b-	4a]
.	.	.	4g
.	.	.	1g
1d	2r	1a	.
.	2d	.	2f
=88	=88	=88	=88
1G	2d	1g	1b-
.	2e	.	.
[1d	[1f	1r	2a
.	.	.	2dd
=89	=89	=89	=89
2d]	2f]	1a	2dd
2c#	2e	.	2ee
2.d	2d	2a	2.ff
.	[2f	2d	.
4c	.	.	4ee
=90	=90	=90	=90
1B-	2f]	2f	1.dd
.	4e	2g	.
.	4d	.	.
1A	2f	1a	.
.	2e	.	2cc
=91	=91	=91	=91
1D	2.d	1f	2b-
.	.	.	1a
.	4c	.	.
1r	1B-	2.d	.
.	.	.	2g
.	.	4e	.
=92	=92	=92	=92
2.D	1A	1f	2.a
4E	.	.	4g
2F	2r	1d	2a
[2G	[2d	.	2b-
=93	=93	=93	=93
2G]	2d]	1r	1a
2F	2.f	.	.
[1B-	.	2.d	[1dd
.	4e	.	.
.	4d	.	.
.	4c	4e	.
=94	=94	=94	=94
1B-]	1d	2f	1dd]
.	.	1g	.
1A	1c	.	1r
.	.	2f	.
=95	=95	=95	=95
1G	2d	2b-	0r
.	2e	2b-	.
[1F	2.f	2.a	.
.	4e	4g	.
=96	=96	=96	=96
1F]	2d	1.f	2.a
.	4c	.	.
.	4B-	.	4b-
1r	2A	.	2cc
.	2B-	4e	[2dd
.	.	4d	.
=97	=97	=97	=97
0r	1A	2f	2dd]
.	.	2e	2cc
.	1d	4d	2ff
.	.	4e	.
.	.	4f	2ff
.	.	4g	.
=98	=98	=98	=98
2.A	2.c	1a	1ee
4B-	4d	.	.
2c	2e	1r	[1a
[2d	[2f	.	.
=99	=99	=99	=99
2d]	2f]	1r	1a]
2c	2e	.	.
2.f	2.a	2.d	2r
.	.	.	[2a
4e	4g	4e	.
=100	=100	=100	=100
2d	2f	2f	4a]
.	.	.	4b-
2c	2e	1g	2cc
2.B-	1d	.	[1dd
.	.	2f	.
4A	.	.	.
=101	=101	=101	=101
2G	1r	2b-	2dd]
2A	.	2a	2cc
2.F	2.A	1a	1ff
4G	4B-	.	.
=102	=102	=102	=102
2A	2c	1a	2ee
2D	1d	.	2dd
1A	.	1r	1ee
.	2c	.	.
=103	=103	=103	=103
0r	2.f	2.d	2dd
.	.	.	2.ff
.	4e	4e	.
.	2d	2f	.
.	.	.	4ee
.	2G	[2g	4dd
.	.	.	4cc
=104	=104	=104	=104
0r	1d	2g]	2b-
.	.	2f	2a
.	1G	2b-	1g
.	.	2b-	.
=105	=105	=105	=105
2.D	1d	1a	2f
.	.	.	2.ff
4E	.	.	.
2F	1r	[1d	.
.	.	.	4ee
[2G	.	.	4dd
.	.	.	4cc
=106	=106	=106	=106
2G]	1r	1d]	2b-
2F	.	.	2a
2.B-	2.G	2r	1g
.	.	[2b-	.
4A	4A	.	.
=107	=107	=107	=107
2G	2B-	4b-]	0g
.	.	4a	.
2C	1c	4g	.
.	.	4f	.
1G	.	2e-	.
.	2B-	2d	.
=108	=108	=108	=108
1C	2e-	2c	2.g
.	2e-	2.G	.
.	.	.	4a
1G	1d	.	4b-
.	.	4A	4cc
.	.	4B-	[2dd
.	.	4c	.
=109	=109	=109	=109
1r	1G	2d	2dd]
.	.	2e	4cc
.	.	.	4b-
2r	1r	2f	2a
2c	.	[2a	2cc
=110	=110	=110	=110
2d	0r	2a]	1b-
2e	.	2g	.
2.f	.	[1a	2a
.	.	.	2cc
4e	.	.	.
=111	=111	=111	=111
2d	1r	0a]	2dd
4c	.	.	2ee
4B-	.	.	.
2A	2r	.	2ff
2c	2e	.	2ee
=112	=112	=112	=112
1B-	2f	2r	1dd
.	2g	2d	.
[1A	2.a	2f	[1cc
.	.	2e	.
.	4g	.	.
=113	=113	=113	=113
1A]	2f	2.a	1cc]
.	4e	.	.
.	4d	8g	.
.	.	8f	.
2r	2c	2e	2r
2E	2e	2g	2g
=114	=114	=114	=114
2F	1d	2f	2a
2G	.	2d	2b
2.A	[1c	2r	[1cc
.	.	2e	.
4G	.	.	.
=115	=115	=115	=115
2F	1c]	2f	0cc]
4E	.	2g	.
4D	.	.	.
2C	2r	2a	.
2E	2G	[2g	.
=116	=116	=116	=116
1D	2A	4g]	1r
.	.	4f	.
.	2B	1f	.
1C	2.c	.	1g
.	.	2e	.
.	4B-	.	.
=117	=117	=117	=117
1r	2A	2f	2a
.	2G	2g	2b
2r	1F	1a	2cc
2A	.	.	2cc
=118	=118	=118	=118
2B-	0r	1g	2dd
2c	.	.	2ee
2.d	.	[1f	2.ff
4c	.	.	4ee
=119	=119	=119	=119
2B-	1r	0f]	2dd
4A	.	.	4cc
4G	.	.	4b-
2F	1c	.	2a
2A	.	.	2cc
=120	=120	=120	=120
1G	2d	1r	1b-
.	2e	.	.
1F	2.f	2r	2a
.	.	2f	2cc
.	4e	.	.
=121	=121	=121	=121
0r	2d	2f	2dd
.	4c	2g	2ee
.	4B-	.	.
.	2A	[1a	2ff
.	2c	.	[2ee
=122	=122	=122	=122
2r	2d	2a]	4ee]
.	.	.	4dd
2F	2f	2a	1dd
2G	1e	2b-	.
2A	.	2a	2cc#
=123	=123	=123	=123
2.B-	[0d	2r	1dd
.	.	2f	.
4A	.	.	.
2G	.	2g	2r
2d	.	2a	2f
=124	=124	=124	=124
2G	1d_	2b-	2g
2F#	.	2a	2a
[1G	1d_	2g	2b-
.	.	[2b-	2g
=125	=125	=125	=125
0G]	0d]	4b-]	0b-
.	.	4a	.
.	.	4g	.
.	.	4f#	.
.	.	1g	.
=126	=126	=126	=126
[0D	[0d	[0f#	[0a
=127	=127	=127	=127
0D]	0d]	0f#]	0a]
==	==	==	==
*-	*-	*-	*-
!!!CDT: 1525/^1526/-1594/2/2
!!!OCY: Italia
!!!AGN: Mass (Parody)
!!!AST: renaissance, vocal
!!!ASW: Motet 1532 (Verdelot)
!!!PWK: Masses, Book I
!!!RNB: Cadence finals: A,F
!!!YOR: Le Opere Complete, v. 1, p. 93
!!!YOO: Rome, Italy: Fratelli Scalera
!!!END: 1992//
!!!EED: John Miller
!!!YEC: Copyright 2000, John Miller
!!!YEN: United States of America
!!!YEM: Rights to all derivative electronic formats reserved.
!!!YEM: Refer to licensing agreement for further details.
!!!YEM: This file must be accompanied by the licensing agreement.
!!!YEM: A copy of the licensing agreement may be found at http://www.music-cog.ohio-state.edu/HumdrumDatabases/Palestrina/license.txt
!!!EMD: converted to Humdrum by Bret Aarden
